X: 3
P: Scotland the Brave
R: march
Z: 1997 by John Chambers <jc@trillian.mit.edu>
B: "The Gesto Collection of Highland Music" (Keith Norman Macdonald) 1891-5
M: C|
L: 1/4
K: G
| "G"G2 G>A | BG Bd | g2 g>f | gd BG | "C"c2 e>c | "G"Bd BG |1 "D7"A3 d>e | dc BA \
                                                           :|2 "D7"A2 G>A | "G"G2 d/e/f/g/ ||
|| "D7"a2 a>b | af d2 | "G"g2 b>a | "C"ge "G"d2 | "Em"g2 ag | "Bm"f2gf | "A7"dg fe | "D7"dc BA |
| "G"G2 G>A | BG Bd | g2 g>f | gd BG | "C"c2 ec | "G"B<d BG | "D7"A2 G>A | "G"G2- Gz |]
